X:13902
T:Rainy Day
R:Reel
B:Scully's Irish Music Book and O'Neill's
Z:added by Alf Warnock
M:4/4
L:1/8
Q:1/4=200
K:G
|:EAAG A3B|(3B^cd ef ged=c|BGGF G3A|BGdG eGdG|
EAAG A3B|cBAB cdef|g3e dBGA|BGdB BAA2:|
|:eaag a4|baa2 bgag|eggf g3a|bgg2 bgag|
eaag aged|(3B^cd ef g3e|g3e dBGA|BGdB BAA2:|
|:EAAG A3B|(3B^cd ef ged=c|BGGF G3A|BGdG eGdG|
EAAG A3B|cBAB cdef|g3e dBGA|BGdB BAA2:|
|:eaag agag|e^def gabg|eggf g2ga|bgaf gedf|
eaag eaag|e^def gaba|(3gfe dB GBef|gedB cAA2:|


